
#include "appleseed/color/as_color_transforms.h"
#include "appleseed/math/as_math_helpers.h"

surface deltaE_00(
    color reference_Lab = 0,
    color sampleval_Lab = 0,
    float dE = 0
    )
{
    float dE_00 = deltaE_CIEDE2000(reference_Lab, sampleval_Lab);

    printf( "Sharma 2004 data dE = %.04f,\tcomputed dE = %.04f\n",
            dE, dE_00);

    Ci = dE_00 * emission();
}

